brandFactory_export/3.Masa/Fuego llama_3Masa.svg

<?xml version="1.0" encoding="UTF-8"?>
<svg width="24px" height="24px" viewBox="0 0 24 24" version="1.1" xmlns="http://www.w3.org/2000/svg" xmlns:xlink="http://www.w3.org/1999/xlink">
    <title>3.Masa/Fuego llama_3Masa</title>
    <g id="Symbols" stroke="none" stroke-width="1" fill="none" fill-rule="evenodd">
        <g id="3.Masa/Fuego-llama_3Masa" fill="#5CB615" fill-rule="nonzero">
            <path d="M19.7327731,11.0184874 C19.2218487,10.4739496 18.6470588,9.97310924 18.0252101,9.53277311 C13.0941176,5.94621849 15.2084034,0.941176471 15.2991597,0.729411765 C15.3731092,0.557983193 15.3462185,0.356302521 15.2285714,0.211764706 C15.107563,0.0638655462 14.9159664,0.00336134454 14.7344538,0.0470588235 C12.5226891,0.571428571 10.2504202,1.7210084 8.33781513,3.28403361 C2.01512605,8.45378151 2.00168067,16.5445378 4.77815126,20.0739496 C6.02521008,21.6605042 7.80672269,22.7798319 9.76638655,23.3445378 C9.47394958,23.1697479 9.16470588,22.9478992 8.85882353,22.6487395 C7.32941176,21.1428571 7.24537815,18.6957983 8.66386555,17.0722689 C8.91260504,16.7865546 9.19495798,16.5243697 9.50420168,16.2890756 C11.4067227,14.8033613 10.5663866,12.6823529 10.5563025,12.6621849 C10.4487395,12.4033613 10.4957983,12.1042017 10.6806723,11.892437 C10.8655462,11.6806723 11.1546218,11.5932773 11.4235294,11.6571429 C12.4890756,11.9294118 13.5815126,12.5176471 14.4957983,13.3210084 C16.5428571,15.1159664 18.1630252,19.297479 16.1596639,22.0302521 C15.6151261,22.7731092 14.8655462,23.3243697 14.0319328,23.6571429 C14.3008403,23.6168067 14.5697479,23.5831933 14.8386555,23.5193277 C14.9361345,23.5058824 17.2521008,23.1697479 19.3630252,21.2336134 C20.805042,19.912605 21.6386555,18.1277311 21.7092437,16.2117647 C21.7764706,14.2957983 21.0739496,12.4504202 19.7327731,11.0184874" id="Path"></path>
        </g>
    </g>
</svg>

<svg width="24" height="24" viewBox="0 0 24 24" xmlns="http://www.w3.org/2000/svg"><path d="M19.733 11.018a11.306 11.306 0 00-1.708-1.485C13.095 5.946 15.208.94 15.3.729a.507.507 0 00-.07-.517.488.488 0 00-.495-.165c-2.211.524-4.484 1.674-6.396 3.237-6.323 5.17-6.336 13.26-3.56 16.79 1.247 1.587 3.029 2.706 4.988 3.27a4.818 4.818 0 01-.907-.695c-1.53-1.506-1.614-3.953-.195-5.577.249-.285.531-.548.84-.783 1.903-1.486 1.062-3.607 1.052-3.627a.74.74 0 01.125-.77.756.756 0 01.743-.235c1.065.272 2.158.86 3.072 1.664 2.047 1.795 3.667 5.976 1.664 8.71a4.864 4.864 0 01-2.128 1.626c.269-.04.538-.074.807-.138.097-.013 2.413-.35 4.524-2.285 1.442-1.321 2.276-3.106 2.346-5.022.067-1.916-.635-3.762-1.976-5.194" fill="#5CB615" fill-rule="nonzero"/></svg>
